dist/images/bike.svg

<svg width="25" height="25" viewBox="0 0 25 25" fill="none" xmlns="http://www.w3.org/2000/svg">
<path fill-rule="evenodd" clip-rule="evenodd" d="M25 12.5C25 19.4036 19.4036 25 12.5 25C5.59644 25 0 19.4036 0 12.5C0 5.59644 5.59644 0 12.5 0C19.4036 0 25 5.59644 25 12.5ZM8.22808 15.1711C7.01151 15.1711 6.02177 16.1609 6.02177 17.3774C6.02177 18.594 7.01151 19.5837 8.22808 19.5837C9.44464 19.5837 10.4344 18.594 10.4344 17.3774C10.4344 16.1609 9.44464 15.1711 8.22808 15.1711ZM8.22808 18.006C7.8815 18.006 7.59949 17.724 7.59949 17.3774C7.59949 17.0307 7.88144 16.7488 8.22808 16.7488C8.57471 16.7488 8.85667 17.0307 8.85667 17.3774C8.85667 17.724 8.57466 18.006 8.22808 18.006ZM17.962 14.1072C18.896 14.1072 19.7877 14.508 20.4083 15.2068C20.5438 15.3595 20.53 15.5932 20.3772 15.7288C20.2246 15.8643 19.9909 15.8505 19.8552 15.6979C19.3749 15.1569 18.6848 14.8467 17.9619 14.8467C16.5662 14.8467 15.4314 15.9244 15.4314 17.3201C15.4314 17.5717 15.2681 17.7478 14.9429 17.7281H11.2582C11.0648 17.7281 10.908 17.5714 10.908 17.378V17.3779H10.8957C10.8957 15.9067 9.69876 14.7098 8.22757 14.7098C6.75637 14.7098 5.55947 15.9067 5.55947 17.3779H4.86744C4.763 17.3779 4.66344 17.3331 4.59373 17.2553C4.52402 17.1776 4.49053 17.0739 4.50178 16.97C4.60354 16.0301 5.05295 15.1944 5.71867 14.594V13.3153C5.71867 13.0415 5.94061 12.8196 6.21437 12.8196H8.24198H8.98299C8.9488 12.7831 8.91815 12.7436 8.89131 12.7012C8.4793 12.345 8.26063 11.8133 8.30864 11.2664L8.60126 7.93111C8.64874 7.38986 9.12601 6.98959 9.66731 7.03706L11.4151 7.19042C11.9564 7.2379 12.3566 7.71517 12.3091 8.25647L12.2539 8.88602L11.1842 8.03436L12.4614 9.75086L14.7406 9.62955C15.1041 9.60999 15.4152 9.88949 15.4346 10.2534C15.4417 10.3862 15.4086 10.5116 15.3465 10.6187H15.9355C15.9748 10.5288 16.028 10.4464 16.0923 10.3742C16.2615 10.1844 16.5077 10.0648 16.7819 10.0648H17.2252C17.3528 10.0648 17.4561 10.1682 17.4561 10.2957V11.6811C17.4561 11.8086 17.3528 11.9119 17.2252 11.9119H16.7819C16.4033 11.9119 16.0782 11.6841 15.9355 11.3581H15.5805L15.7092 11.7579C16.3037 12.0239 17.3467 12.6766 17.8498 14.11L17.8663 14.1094C17.8981 14.1083 17.9299 14.1072 17.962 14.1072ZM11.6152 15.7739C11.793 16.1488 11.9104 16.5578 11.9549 16.9885V16.9886H12.3176C12.2655 16.8813 12.2362 16.7609 12.2378 16.6335L12.2798 13.3169L10.6236 13.1756V14.4963C11.051 14.852 11.3869 15.292 11.6152 15.7734V15.7739ZM14.4127 16.9886H14.7152C14.8192 16.1165 15.2672 15.349 15.9197 14.8257L14.8823 11.6033L14.6735 10.9545L12.1781 11.0873C11.9546 11.0992 11.7439 10.9975 11.6136 10.8224L10.1253 8.8221L11.0843 11.2163C11.2193 11.5515 11.5563 11.7812 11.9373 11.761L13.1514 11.8049C13.5636 11.8418 13.8778 12.1898 13.8726 12.6036L13.8213 16.6535C13.8197 16.7738 13.791 16.8871 13.7417 16.9886H14.4127ZM17.9622 15.1711C16.7457 15.1711 15.7559 16.1609 15.7559 17.3774C15.7559 18.594 16.7457 19.5837 17.9622 19.5837C19.1788 19.5837 20.1686 18.594 20.1686 17.3774C20.1686 16.1609 19.1788 15.1711 17.9622 15.1711ZM17.9622 18.006C17.6157 18.006 17.3337 17.724 17.3337 17.3774C17.3337 17.0307 17.6156 16.7488 17.9622 16.7488C18.3088 16.7488 18.5908 17.0307 18.5908 17.3774C18.5908 17.724 18.3089 18.006 17.9622 18.006ZM12.3648 4.95712C12.3648 5.76147 11.7127 6.41352 10.9083 6.41352C10.104 6.41352 9.45194 5.76147 9.45194 4.95712C9.45194 4.15277 10.104 3.50071 10.9083 3.50071C11.7127 3.50071 12.3648 4.15277 12.3648 4.95712Z" fill="#FC9908"/>
</svg>

<svg width="25" height="25" fill="none" xmlns="http://www.w3.org/2000/svg"><path fill-rule="evenodd" clip-rule="evenodd" d="M25 12.5C25 19.404 19.404 25 12.5 25S0 19.404 0 12.5 5.596 0 12.5 0 25 5.596 25 12.5zM8.228 15.171c-1.216 0-2.206.99-2.206 2.206a2.21 2.21 0 0 0 2.206 2.207c1.217 0 2.206-.99 2.206-2.207 0-1.216-.99-2.206-2.206-2.206zm0 2.835a.63.63 0 1 1 .002-1.259.63.63 0 0 1-.002 1.259zm9.734-3.899c.934 0 1.826.401 2.446 1.1a.37.37 0 0 1-.553.49 2.534 2.534 0 0 0-1.893-.85c-1.396 0-2.53 1.077-2.53 2.473 0 .252-.164.428-.49.408h-3.684a.35.35 0 0 1-.35-.35h-.012a2.671 2.671 0 0 0-2.668-2.668 2.671 2.671 0 0 0-2.669 2.668h-.692a.368.368 0 0 1-.365-.408 3.74 3.74 0 0 1 1.217-2.376v-1.279c0-.274.222-.495.495-.495h2.769a.795.795 0 0 1-.092-.119 1.699 1.699 0 0 1-.582-1.435L8.6 7.931a.984.984 0 0 1 1.066-.894l1.748.153a.984.984 0 0 1 .894 1.066l-.055.63-1.07-.852 1.277 1.717 2.28-.121a.66.66 0 0 1 .606.989h.588a.925.925 0 0 1 .847-.554h.443a.23.23 0 0 1 .231.23v1.386a.23.23 0 0 1-.23.23h-.444a.924.924 0 0 1-.847-.553h-.354l.128.4a3.981 3.981 0 0 1 2.14 2.352h.017a2.76 2.76 0 0 1 .096-.003zm-6.347 1.667c.178.375.295.784.34 1.214h.363a.788.788 0 0 1-.08-.354l.042-3.317-1.656-.141v1.32c.427.356.763.796.991 1.277zm2.798 1.215h.302a3.27 3.27 0 0 1 1.205-2.163l-1.038-3.223-.208-.649-2.496.133a.66.66 0 0 1-.564-.265l-1.489-2 .96 2.394a.871.871 0 0 0 .852.545l1.214.044a.792.792 0 0 1 .722.799l-.052 4.05a.788.788 0 0 1-.08.335h.672zm3.55-1.818a2.21 2.21 0 0 0-2.207 2.206 2.21 2.21 0 0 0 2.206 2.207 2.21 2.21 0 0 0 2.207-2.207 2.21 2.21 0 0 0-2.207-2.206zm0 2.835a.63.63 0 1 1 0-1.259.63.63 0 0 1 0 1.259zM12.364 4.957a1.456 1.456 0 1 1-2.913 0 1.456 1.456 0 0 1 2.913 0z" fill="#FC9908"/></svg>
